X:5364
T:Flower of the Flock
M:C
L:1/8
K:G Major
GE|DEGA BGGB|cABG AGEG|DEGA BABc|dBAB G2:|!
Bd|g2ge d2dB|cABG AGEG|g2ge d2Bd|eaab agef|!
g2ge d2dB|cABG AGEG|DEGA BABc|dBAB G2:|!
